src/svgs/text-align-center-right.svg

<?xml version="1.0" encoding="UTF-8" standalone="no"?>
<!-- Created with Inkscape (http://www.inkscape.org/) -->

<svg
   xmlns:dc="http://purl.org/dc/elements/1.1/"
   xmlns:cc="http://creativecommons.org/ns#"
   xmlns:rdf="http://www.w3.org/1999/02/22-rdf-syntax-ns#"
   xmlns:svg="http://www.w3.org/2000/svg"
   xmlns="http://www.w3.org/2000/svg"
   xmlns:sodipodi="http://sodipodi.sourceforge.net/DTD/sodipodi-0.dtd"
   xmlns:inkscape="http://www.inkscape.org/namespaces/inkscape"
   width="20"
   height="20"
   id="svg4863"
   version="1.1"
   inkscape:version="0.48.5 r10040"
   sodipodi:docname="text-right.svg"
   inkscape:export-filename="/Users/saman/work_repos/base/latest/icons/text-vertical-center.png"
   inkscape:export-xdpi="180"
   inkscape:export-ydpi="180">
  <defs
     id="defs4865" />
  <sodipodi:namedview
     id="base"
     pagecolor="#ffffff"
     bordercolor="#666666"
     borderopacity="1.0"
     inkscape:pageopacity="0.0"
     inkscape:pageshadow="2"
     inkscape:zoom="22.627417"
     inkscape:cx="11.814488"
     inkscape:cy="15.000398"
     inkscape:document-units="px"
     inkscape:current-layer="layer1"
     showgrid="true"
     inkscape:snap-bbox="true"
     inkscape:snap-nodes="true"
     inkscape:window-width="1076"
     inkscape:window-height="804"
     inkscape:window-x="181"
     inkscape:window-y="0"
     inkscape:window-maximized="0"
     showguides="false"
     inkscape:guide-bbox="true">
    <inkscape:grid
       type="xygrid"
       id="grid4886"
       empspacing="5"
       visible="true"
       enabled="true"
       snapvisiblegridlinesonly="true" />
    <sodipodi:guide
       orientation="0,1"
       position="22,15"
       id="guide6423" />
    <sodipodi:guide
       orientation="0,1"
       position="21,5"
       id="guide6425" />
    <sodipodi:guide
       orientation="0,1"
       position="33,95"
       id="guide7108" />
  </sodipodi:namedview>
  <metadata
     id="metadata4868">
    <rdf:RDF>
      <cc:Work
         rdf:about="">
        <dc:format>image/svg+xml</dc:format>
        <dc:type
           rdf:resource="http://purl.org/dc/dcmitype/StillImage" />
        <dc:title />
      </cc:Work>
    </rdf:RDF>
  </metadata>
  <g
     inkscape:label="Layer 1"
     inkscape:groupmode="layer"
     id="layer1"
     transform="translate(0,-1032.3622)">
    <g
       transform="matrix(1.9999805,0,0,1.7500055,-539.99976,-1081.7773)"
       id="g5863" />
    <g
       id="g7094" />
    <g
       transform="matrix(-1,0,0,1,159.99995,80)"
       id="g7149-6" />
    <path
       d="M 5 6 C 5 6 4 5.9999 4 7 C 4 8 5 8 5 8 L 7 8 L 7 13 C 7 13 7 14 8 14 C 9 14 9 13 9 13 L 9.03125 8 L 11 8 C 11 8 12.00005 8 12 7 C 11.99995 6 11 6 11 6 L 5 6 z M 13.5 8.5 C 12.675 8.5 12 9.175 12 10 C 12 10.825 12.675 11.5 13.5 11.5 C 14.325 11.5 15 10.825 15 10 C 15 9.175 14.325 8.5 13.5 8.5 z "
       transform="translate(0,1032.3622)"
       id="path7050-6-8" />
  </g>
</svg>

<?xml version="1.0" encoding="UTF-8" standalone="yes"?>
<svg viewBox="0 0 20 20">
  <path d="M5,6c0,0-1,0-1,1c0,1,1,1,1,1h2v5c0,0,0,1,1,1s1-1,1-1l0-5h2c0,0,1,0,1-1s-1-1-1-1H5z M13.5,8.5C12.7,8.5,12,9.2,12,10
	s0.7,1.5,1.5,1.5S15,10.8,15,10S14.3,8.5,13.5,8.5z"/>
</svg>
